X: 05047
T: KATIE MORSE'S JIG
C: Bob McQuillen 29 July'80
B: Bob's Note Book 5 #47
%R: jig
Z: 2021 John Chambers <jc:trillian.mit.edu>
M: 6/8
L: 1/8
K: A
ed \
| cAA eAA | def ecA | GAB BcB | dcB cAA |\
| def ecA | fdf ecA | Ace dBe | cAA A :|
|: ce \
| aee aee | dcB cAA | Bee Bee | gfg efg |\
| aee gee | faf ecA | agf ecA | dcB A :|
%%begintext align
%% If you ever want something
%% done, & done right, then
%% get Katie to do it. She's super!
%% Love you lots, Katie --
%%endtext

%%sep 1 1 500

%%sep 1 1 500

